!!!OTL: Verschlafener Jaeger Es ging ein Jaeger jagen,
!!!ARE: Europa, Mitteleuropa, Schweiz, Graubuenden
!!!YOR: 7, S. 220
!!    1931 aufgezeichnet
!!!SCT: Q0152U
!!!YEM: Copyright 1995, estate of Helmut Schaffrath.
**kern
*ICvox
*Ivox
*M2/4
*k[f#]
*G:
{8g
=1
8.g
16b
8b
8b
=2
8.a
16b
8.cc}
{16a
=3
8.a
16cc
8cc
8cc
=4
8.b
16cc
8.dd}
{16dd
=5
4b
8b
8b
=6
8a
8b
8cc}
{8ee
=7
8dd
8dd
8cc
8dd
=8
4b
8r}
==
!!!AGN: Ballade, Verfuehrung, ??
!! Zugehoerigkeit zu dieser Balladengruppe ungeklaert.
!!!ONB: ESAC (Essen Associative Code) Database: BALLADE
!!!AMT: simple duple
!!!AIN: vox
!!!EED: Helmut Schaffrath
!!!EEV: 1.0
*-
